X:1
T:Agnus Dei - Caldara
T:James Gibb editions
T:#
%%score [ 1 2 ] { ( 3 4 ) | 5 }
L:1/8
Q:1/4=80
M:3/4
K:Bb
V:1 treble nm="Alto" snm="A"
V:2 treble nm="Tenor" snm="T"
V:3 treble nm="Cembalo"
V:4 treble 
V:5 bass 
V:1
"^Agnus Dei""^Antonio Caldara\n(c.1670-1736)" z2 F2 B2 | B2 (AG) (FE) | D2 B,F G2 | (BG) (F2 E2) | %4
w: A- gnus|De- i, * qui *|tol- lis pec- ca-|ta * mun\- *|
 D4"^Ecco mormorar l'onde - Monteverdi" z2 | z6 | z6 | z6 | z6 |[M:3/4] z6 | z6 | z6 | z6 | %13
w: di,|||||||||
 z2 F2 B2 | B2 (AG) (FE) | D2 B,F G2 | (BG) (F2 E2) | D2 F4 | B,2 (CE) (CB,) | A,2 F,2 F2 | %20
w: A- gnus|De- i, * qui *|tol- lis pec- ca-|ta * mun\- *|di, qui|tol- lis * pec\- *|ca- ta, qui|
 B,2 (CE) (CB,) | A,2 B,2 C2 | D2 C2 D2 | E2 D2 (EF) | G2 F2 B,2 | (A,2 E2 D2 | _D2 C2) B,2 | %27
w: tol- lis * pec\- *|ca- ta, pec-|ca- ta, pec-|ca- ta, qui *|tol- lis pec-|ca\- * *|* * ta|
 A,2 F,2 z2 | F6- | F3 F F2 | FD =B,G, DF | E2 E2 G2- | G=E ^CA, EG | (F3 GAD | =E=B, T^C4) | %35
w: mun- di,|su\-|* sci- pe|de- pre- ca- ti- o- nem|no- stram, de\-|* pre- ca- ti- o- nem|no\- * * *||
 D4 z2 | z6 | z6 | z6 | z6 | z6 ||[M:3/4] z6 | z6 | z6 | z6 | z6 | z6 | z6 | z6 | %49
w: stram!||||||||||||||
[M:3/4] z2 C2 G2- | G2 (F=E) (DC) | B,2 D2 B2- | B2 (AGF=E | D2) F2 d2- | d2 (cBAG) | %55
w: Qui tol\-|* lis * pec\- *|ca- ta, pec\-|* ca\- * * *|* ta, pec\-||
 (AB) (A2 TG2) | F4 z2 | z6 | z6 | z6 | z6 | z6 | z2 G4 | C2 (DF) (DC) | (B,2 EGED | C2 FA) (FE) | %66
w: ta * mun\- *|di,||||||qui|tol- lis * pec\- *|ca\- * * * *|* * * ta *|
 D2 C2 D2 | E2 D2 E2 | F2 E2 F2 | (G2 F2) E2 | (ED) D2 z2 | G6- | G3 G G2 | G=E ^CA, EG | %74
w: mun- di, qui-|tol- lis pec-|ca- ta, pec-|ca\- * ta|mun\- * di,|su\-|* sci- pe|de- pre- ca- ti- o- nem|
 ^F2 D2 =F2- | FD =B,G, DF | =E2 C2 _E2- | EC A,F, CE | E2 D2 F2- | FE G2 E2 | C3 C (DC | %81
w: no- stram, de\-|* pre- ca- ti- o- nem|no- stram, de\-|* pre- ca- ti- o- nem|no- stram, de\-|* pre- ca- ti-|o- nem no\- *|
 DE D2 C2) | B,4 z2 | z6 | z6 | z6 | z6 |] %87
w: |stram!|||||
V:2
[K:C] z6 z2 | z6 | z6 | z6 | z6 | z6 | z6 | z6 | z6 |[M:3/4] z6 | z6 | z6 | z6 | z6 | z6 | z6 | %16
w: ||||||||||||||||
 z6 | z6 |[M:3/4] z6 | z6 | z6 | z6 | z6 | z6 | z6 | z6 | z6 |[M:3/4] z6 | z6 | z6 | z6 | z6 | z6 | %33
w: |||||||||||||||||
 z6 |[M:3/4] z6 | z6 | z6 | z6 | z6 | z6 | z6 ||[K:Bb][M:3/4][K:treble-8] z2 c2 f2 | %42
w: ||||||||A- gnus|
 f2 (=ed) (cB) | A2 Fc d2 | (fd) (c2 B2) | A2 c4 | F2 (GB) (GF) | =E2 C2 c2 | F2 (GB) (GF) | %49
w: De- i * qui *|tol- lis pec- ca-|ta * mun\- *|di, qui|tol- lis * pec\- *|ca- ta, qui|tol- lis * pec\- *|
 =E2 C2 z2 | z2 C2 A2- | A2 (GF) (=ED) | C2 =E2 c2- | c2 (BAGF) | =E2 =e2 (fe) | (fd) T=e4 | %56
w: ca- ta,|qui tol\-|* lis * pec\- *|ca- ta, pec\-|* ca\- * * *|ta, pec- ca\- *|ta * mun-|
 f4 z2 | z6 | z6 | z6 | z6 | z2 f4 | B2 (ce) (cB) | (A2 BdBA | G2 cecB | A2 df) dc | =B2 A2 B2 | %67
w: di,|||||qui|tol- lis * pec\- *|ca\- * * * *||* * * ta *|mun- di, qui|
 c2 =B2 c2 | d2 c2 d2 | (e2 d2) c2 | (c=B) B2 z2 | z6 | z6 | ^c3 c =c2 | cA ^FD Ac | =B2 G2 _B2- | %76
w: tol- lis pec-|ca- ta, pec-|ca\- * ta|mun\- * di,|||su- sci- pe|de- pre- ca- ti- o- nem|no- stram, de\-|
 BG =EC GB | A2 F2 z2 | z2 B2 (d2- | dc) e2 c2 | A3 A (BA | Bc B2 A2) | B4 z2 | z6 | z6 | z6 | %86
w: * pre- ca- ti- o- nem|no- stram,|de- pre\-|* * ca- ti-|o- nem no\- *||stram!||||
 z6 |] %87
w: |
V:3
"^andante"!p! z2 F2 [DB]2 | B2 AGFE | D2 B,F G2 | BG F2 E2 | D2!f! B2 f2- | f2 e2 g2- | g2 fe a2- | %7
 a2 gf b2- | b2 ag c'2- |[M:3/4] c'2 ba d'2- | d'2 c'bag | a3 a b2- | bc' Ta3 b | b2!p! x4 | %14
 B2 AGFE | D2 B,F G2 | BG F2 E2 | D2 [Ff]4 | [DB]2 cecB | [FA]2 F2 [Ff]2 | [DB]2 cecB | A2 B2 c2 | %22
 d2 c2 d2 | e2 d2 ef | g2 f2 B2 | A2 e2 d2 | _d2 c2 B2 | A2!f! c2 f2 | dc c2 ed | %29
 [Bd][Ac] [Ac]2!p! [Ff]2 | fd=BGdf | e2 e2 g2- | [^cg]=ecAeg | f3 gad | =e=B T^c4 | d2!f! A2 a2- | %36
 a2 g2 b2- | b2 ag c'2- | c'2 ba d'2- | d'2 c'bag | ab Tg3 f || f2!p! c2 f2 | f2 =edcB | %43
 A2 F c d2 | fd [DFc]2 [EGB]2 | [CFA]2 [Cc]4 | F2 GB GF | =E2 C2 [Cc]2 | F2 G B [DG] F | %49
 =E2 [Cc]2 g2- | g2 (f=e) a2 | a2 gf b2- | b2 ag c'2- | c'2 ba d'2- | d'2 (c'bag) | %55
 (ab) [fa]2 T[=eg]2 | f2!f! ab c'2- | c'a^fdac' | =b2 d2 _b2- | bg=ecgb | a2 c2 a2 | b2!p! f4 | %62
 B2 g4 | x6 | x6 | x6 | x6 | x6 | x6 | x6 | x4 g2 | [ce][=Bd] [Bd]2 [df][ce] | %72
 [ce][Bd] [Bd]2 [Gg]2 |!mp! g=e^cAeg | ^f2 d2 =f2- | fd=BGdf | =e2 c2 _e2- | ecAFce | %78
 [Fe]2 [Bd]2 [Fdf]2- | [df][ce] [ce][eg][ce][Bd] | [Ac]3 [Ac][Bd][Ac] | [Bd][ce] [Bd]2 T[Ac]2 | %82
 B2!f! dfdc | B2 [ce][eg][ce][Bd] | [Ac]3 [Ac][Bd][Ac] | [Bd][ce] Tc3 c | [DB]4 z2 |] %87
V:4
 x6 | C4 C2 | x2 B,2 B,2 | [B,F]2 B,2 A,2 | B,2 x2 x2 | x2 BdcB | A2 c2 dc | B2 d2 ed | c2 e2 fe | %9
[M:3/4] d2 f2 gf | e2 e2 c2 | g2 fedc | de [ce]3 [Bd] | [Bd]2 F2 [DB]2 | C4 C2 | x2 B,2 B,2 | %16
 [B,F]2 B,2 A,2 | B,2 x4 | x2 E2 G2 | x6 | x2 E2 G2 | F4 F2 | F4 z2 | B4 B2 | B4 B2 | x4 F2 | %26
 G4 G2 | F2 A2 A2 | BA A2 cB | x6 | F4 G2 | [Gc]2 [Gc]2 [Gd]2 | G4 A2 | A2 d4 | G2 G4 | F2 x4 | %36
 z2 df=ed | c2 =e2 fe | d2 f2 gf | =e3 efe | fg =e3 f || f2 x2 A2 | G4 G2 | F2 F2 F2 | [Fc]2 x4 | %45
 x6 | x4 D2 | x6 | x2 D2 x2 | x6 | z2 c2 dc | B2 d2 ed | c2 =e2 fe | d2 f2 gf | =e2 e2 fe | fg z4 | %56
 f2 z2 g2 | ^f2 z2 =f2- | fd=BGdf | =e2 z2 _e2- | ecAFce | ed d2 z2 | B2 cecB | %63
 [Ac]2 [Bd][df][Bd][Ac] | [GB]2 [ce][eg][ce][Bd] | [Ac]2 [df][fa][df][ce] | [=Bd]2 [Ac]2 [Bd]2 | %67
 [ce]2 [=Bd]2 [ce]2 | [df]2 [ce]2 [df]2 | [eg]2 [df]2 [ce]2 | [ce][=Bd]!f! [Bd]2 [GB]2 | G2 x2 G2 | %72
 G2 x4 | ^c2 x2 =c2 | cA^FDAc | =B2 x2 _B2- | BG=ECGB | A2 x2 F2 | x6 | G2 x2 x2 | x6 | x6 | x6 | %83
 x6 | x6 | x2 [FB]2 [EA]2 | x6 |] %87
V:5
!p! B,,2 D,2 B,,2 | F,,2 F,2 A,2 | B,2 D,2 E,2 | D,2 C,2 F,2 | B,,2!f! D,2 B,,2 | E,2 G,2 E,2 | %6
 F,2 A,2 F,2 | G,2 B,2 G,2 | A,2 C2 A,2 |[M:3/4] B,2 D2 B,2 | C2 C,2 E,2 | F,2 F,2 G,2 | %12
 E,2 F,2 F,,2 | B,,2!p! D,2 B,,2 | F,,2 F,2 A,2 | B,2 D,2 E,2 | D,2 C,2 F,2 | B,,2 D,2 B,,2 | %18
 G,2 C,2 =E,2 | F,3 _E, D,2 | G,2 C,2 =E,2 | F,2 G,2 A,2 | B,2 A,2 z2 | G,2 F,2 z2 | E,2 D,2 z2 | %25
 C,4 B,,2 | =E,4 z2 | F,2!f! A,2 F,2 | B,2 F,2 A,2 | B,2 F,2 D,2 | G,2 G,,2 =B,,2 | C,2 C2 B,2 | %32
 A,2 A,,2 ^C,2 | D,2 B,2 F,2 | G,2 A,2 A,,2 | D,2!f! F,2 D,2 | G,2 B,2 G,2 | A,2 C2 A,2 | %38
 B,2 D2 B,2 | C2 C,2 D,2 | B,,2 C,2 C,,2 || F,,2!p! A,,2 F,,2 | C,2 C2 =E,2 | F,2 A,,2 B,,2 | %44
 A,,2 G,,2 C,2 | F,,2 A,,2 F,,2 | [D,A,]2 [G,B,]2 =B,2 | C3 _B, A,2 | [D,A,]2 G,,2 =B,,2 | %49
 C,2 =E,2 C,2 | F,,2 A,,2 F,,2 | G,,2 B,,2 G,,2 | A,,2 C,2 A,,2 | B,,2 D,2 B,,2 | C,2 C2 D2 | %55
 B,2 C2 C,2 | F,,2!f! F,2 [_E,G,]2 | [D,A,]4 D,2 | G,4 G,,2 | C,4 C,2 | F,4 F,,2 | %61
 B,,2!p! D,2 B,,2 | D,2 E,2 =E,2 | F,2 B,,2 z2 | E,2 C,2 z2 | F,2 D,2 z2 | G,2 G,,2 z2 | %67
 G,2 G,,2 z2 | G,2 G,,2 z2 | E,2 F,4 | G,2!f! =B,2 G,2 | C2 G,2 =B,2 | C2 G,2 =E,2 |!mp! A,4 A,,2 | %74
 D,4 D,2 | G,4 G,,2 | C,4 C,2 | F,4 A,,2 | B,,4 B,,2 | E,4 E,2 | F,2 E,2 D,2 | G,E, F,2 F,,2 | %82
 B,,2!f! D,2 B,,2 | E,2 C,2 E,2 | F,2 E,2 D,2 | G,E, F,2 F,,2 | B,,4 z2 |] %87

